!!!!SEGMENT: Ver3011-Quando_nascesti_amore.krn
!!!id: Ver3011
!!!AGN: Madrigal
!!!SCT: Slim (1972)
!!!voices: 5
!!!COM: Philippe Verdelot
!!!OTL: Quando nascesti, amore?
**kern	**kern	**kern	**kern	**kern	**kern
*part6	*part5	*part4	*part3	*part2	*part1
*staff6	*staff5	*staff4	*staff3	*staff2	*staff1
*I"Bassus	*I"Tenor II	*I"Tenor I	*I"Altus	*I"Superius II	*I"Superius I
*I'B	*I'T. II	*I'T. I	*I'A	*I'S. II	*I'S. I
*clefF4	*clefGv2	*clefGv2	*clefG2	*clefG2	*clefG2
*k[]	*k[]	*k[]	*k[]	*k[]	*k[]
*C:	*C:	*C:	*C:	*C:	*C:
*M2/1	*M2/1	*M2/1	*M2/1	*M2/1	*M2/1
*met(C)	*met(C)	*met(C)	*met(C)	*met(C)	*met(C)
=1	=1	=1	=1	=1	=1
0r	0r	0r	0r	1a	1a
.	.	.	.	2a	2cc
.	.	.	.	2f	2dd
=2	=2	=2	=2	=2	=2
0r	0r	0r	0r	2g	2ee
.	.	.	.	2a	2cc
.	.	.	.	2d	[1ff
.	.	.	.	[2dd	.
=3	=3	=3	=3	=3	=3
0r	0r	0r	0r	2dd]	2ff]
.	.	.	.	4cc	4ee
.	.	.	.	4b	4dd
.	.	.	.	[1cc#X	[1ee
=4	=4	=4	=4	=4	=4
1A	2r	1e	1a	1cc#]	1ee]
.	2A	.	.	.	.
2F	2c	2f	2a	1r	1r
2F	2c	2f	2a	.	.
=5	=5	=5	=5	=5	=5
1G	1B	1d	1g	0r	0r
1D	2A	2d	2f	.	.
.	[2d	[2f	[2a	.	.
=6	=6	=6	=6	=6	=6
1A	2d]	2f]	2a]	0r	0r
.	2c	2e	2a	.	.
2B-X	2d	2d	1f	.	.
2A	[2f	2c	.	.	.
=7	=7	=7	=7	=7	=7
2G	2f]	1B-i	2g	0r	0r
2G	2e	.	2g	.	.
2F	2f	2c	2a	.	.
2C	2e	2g	2cc	.	.
=8	=8	=8	=8	=8	=8
2G	2d	2g	2b	0r	0r
2A	2c	2f	2.a	.	.
1E	1B	1e	.	.	.
.	.	.	8g#iL	.	.
.	.	.	8f#iJ	.	.
.	.	.	2g#i	.	.
=9	=9	=9	=9	=9	=9
0A	[0A	[0e	0a	2r	1r
.	.	.	.	2a	.
.	.	.	.	[1cc	2r
.	.	.	.	.	2a
=10	=10	=10	=10	=10	=10
0r	0A]	0e]	0r	2cc]	1.cc
.	.	.	.	2a	.
.	.	.	.	2.cc	.
.	.	.	.	.	2a
.	.	.	.	4b	.
=11	=11	=11	=11	=11	=11
0r	0r	0r	0r	4a	2cc
.	.	.	.	4g	.
.	.	.	.	1a	2cc
.	.	.	.	.	1b
.	.	.	.	2g#i	.
=12	=12	=12	=12	=12	=12
1r	2r	1r	1r	[0a	0a
.	1d	.	.	.	.
[1D	.	2r	2r	.	.
.	2A	[2d	[2f	.	.
=13	=13	=13	=13	=13	=13
2D]	1A	2d]	2f]	0a]	0r
2C	.	2e	2e	.	.
1D	1A	1f	1d	.	.
=14	=14	=14	=14	=14	=14
2A	2r	2e	2c	0r	0r
2F	2A	2f	2a	.	.
2G	2B	2d	2g	.	.
2A	2A	2c	2e	.	.
=15	=15	=15	=15	=15	=15
2D	2A	2d	2f	0r	0r
2E	2e	2B	2g	.	.
2F	2c	1A	1a	.	.
2D	2d	.	.	.	.
=16	=16	=16	=16	=16	=16
4F	2A	1a	2a	0r	0r
4G	.	.	.	.	.
4A	2f	.	2.cc	.	.
4B	.	.	.	.	.
2c	2e	2g	.	.	.
.	.	.	4b	.	.
2d	[2f	2f	[2a	.	.
=17	=17	=17	=17	=17	=17
1B-X	4f]	1d	4a]	0r	0r
.	4e	.	8gL	.	.
.	.	.	8fJ	.	.
.	2.d	.	2g	.	.
1A	.	1e	1a	.	.
.	8c#iL	.	.	.	.
.	8BJ	.	.	.	.
.	2c#i	.	.	.	.
=18	=18	=18	=18	=18	=18
0D	[0d	1d	0f	2r	1r
.	.	.	.	2a	.
.	.	1r	.	2a	2r
.	.	.	.	2a	2a
=19	=19	=19	=19	=19	=19
0r	0d]	0r	0r	2.dd	2a
.	.	.	.	.	2a
.	.	.	.	4cc	.
.	.	.	.	2b	2.dd
.	.	.	.	2a	.
.	.	.	.	.	4cc
=20	=20	=20	=20	=20	=20
0r	0r	0r	0r	2dd	2b
.	.	.	.	2cc	2a
.	.	.	.	2b	2dd
.	.	.	.	[2a	2cc
=21	=21	=21	=21	=21	=21
1r	1r	1r	1r	4a]	1b
.	.	.	.	8g#iL	.
.	.	.	.	8f#iJ	.
.	.	.	.	2g#i	.
2r	2r	2r	2r	1a	1a
2F	2A	2a	2cc	.	.
=22	=22	=22	=22	=22	=22
2G	2B	2g	2b	0r	0r
2A	2c	4f	2a	.	.
.	.	4e	.	.	.
1B-i	1d	1d	4g	.	.
.	.	.	4f	.	.
.	.	.	2g	.	.
=23	=23	=23	=23	=23	=23
1A	1e	1c	1a	0r	0r
[1D	[1d	[1f	[1a	.	.
=24	=24	=24	=24	=24	=24
1D]	1d]	1f]	1a]	0r	0r
1A	1c	1e	1a	.	.
=25	=25	=25	=25	=25	=25
2D	1f	2.d	1a	0r	0r
1d	.	.	.	.	.
.	.	4e	.	.	.
.	2d	2f	2a	.	.
2c#i	2e	2e	2a	.	.
=26	=26	=26	=26	=26	=26
1d	1f	2d	0a	0r	0r
.	.	2.f	.	.	.
1D	1d	.	.	.	.
.	.	4e	.	.	.
.	.	[2d	.	.	.
=27	=27	=27	=27	=27	=27
0A	0e	2d]	1a	2r	1r
.	.	4c#i	.	2a	.
.	.	4B	.	.	.
.	.	1c#X	1r	2a	1ee
.	.	.	.	2a	.
=28	=28	=28	=28	=28	=28
0r	0r	0r	0r	4d	1.ff
.	.	.	.	4e	.
.	.	.	.	4f	.
.	.	.	.	4g	.
.	.	.	.	4a	.
.	.	.	.	4b	.
.	.	.	.	2cc	2ee
=29	=29	=29	=29	=29	=29
0r	0r	0r	1r	2b	2dd
.	.	.	.	1a	2cc
.	.	.	2r	.	1b
.	.	.	2e	2g#i	.
=30	=30	=30	=30	=30	=30
1r	1r	2r	2f	1a	[0a
.	.	2e	2c	.	.
2r	2r	2f	2d	1r	.
2A	2e	2c	2A	.	.
=31	=31	=31	=31	=31	=31
2D	2f	2d	0r	0r	0a]
2F	2c	2A	.	.	.
4D	2d	1f	.	.	.
4E	.	.	.	.	.
4F	[2A	.	.	.	.
4G	.	.	.	.	.
=32	=32	=32	=32	=32	=32
1A	4A]	2e	2r	0r	0r
.	4B	.	.	.	.
.	4c	2e	2a	.	.
.	4d	.	.	.	.
2r	1e	4A	2.cc	.	.
.	.	4B	.	.	.
2A	.	4c	.	.	.
.	.	4d	4b	.	.
=33	=33	=33	=33	=33	=33
2.c	2r	1e	2a	0r	0r
.	2A	.	2g	.	.
4B	.	.	.	.	.
2A	2.c	1r	2f	.	.
2G	.	.	2e	.	.
.	4B	.	.	.	.
=34	=34	=34	=34	=34	=34
2F	2A	2r	2d	0r	0r
2E	2G	2e	2c	.	.
2D	2F	2f	2d	.	.
2C	2E	2g	2e	.	.
=35	=35	=35	=35	=35	=35
1D	2D	2f	1f	0r	0r
.	2.d	2.a	.	.	.
1A	.	.	1e	.	.
.	8c#iL	4g	.	.	.
.	8BJ	.	.	.	.
.	2c#i	8aL	.	.	.
.	.	8g	.	.	.
.	.	8f	.	.	.
.	.	8eJ	.	.	.
=36	=36	=36	=36	=36	=36
[0D	0d	4f	1d	1r	2r
.	.	4e	.	.	.
.	.	4f	.	.	2d
.	.	4g	.	.	.
.	.	1a	1r	2r	4f
.	.	.	.	.	4e
.	.	.	.	2d	4f
.	.	.	.	.	4g
=37	=37	=37	=37	=37	=37
0D]	0r	0r	0r	4f	2a
.	.	.	.	4e	.
.	.	.	.	4f	2d
.	.	.	.	4g	.
.	.	.	.	2a	4f
.	.	.	.	.	4e
.	.	.	.	2d	4f
.	.	.	.	.	4g
=38	=38	=38	=38	=38	=38
0r	0r	0r	0r	4f	4a
.	.	.	.	4e	4g
.	.	.	.	4f	4a
.	.	.	.	4g	4b
.	.	.	.	2a	2cc
.	.	.	.	[2f	[2dd
=39	=39	=39	=39	=39	=39
0r	0r	0r	0r	2f]	2dd]
.	.	.	.	4e	4cc#i
.	.	.	.	4d	4b
.	.	.	.	1e	1cc#i
=40	=40	=40	=40	=40	=40
1r	1r	1r	1r	1d	0dd
[1B-X	[1G	[1d	[1g	1r	.
=41	=41	=41	=41	=41	=41
2B-]	2G]	2d]	2g]	0r	0r
2A	2A	2c	2f	.	.
1G	1B	2d	1g	.	.
.	.	2e	.	.	.
=42	=42	=42	=42	=42	=42
0F	[0c	0f	0a	2r	2r
.	.	.	.	2cc	2ff
.	.	.	.	2cc	2ff
.	.	.	.	2cc	2ff
=43	=43	=43	=43	=43	=43
0r	1c]	0r	0r	2cc	2ee
.	.	.	.	2a	2cc
.	1r	.	.	2b	2dd
.	.	.	.	2g	2ee
=44	=44	=44	=44	=44	=44
0r	0r	0r	0r	4a	4cc
.	.	.	.	4b	4dd
.	.	.	.	4cc	4ee
.	.	.	.	4a	4cc
.	.	.	.	4b-i	4dd
.	.	.	.	4a	4ee
.	.	.	.	4g	[2ff
.	.	.	.	4f	.
=45	=45	=45	=45	=45	=45
1r	1r	1r	1r	1g	2ff]
.	.	.	.	.	2ee
2r	2r	2r	2r	[1f	[1ff
2F	2A	2c	2a	.	.
=46	=46	=46	=46	=46	=46
2F	2A	2c	2a	1f]	1ff]
2F	2A	2c	2a	.	.
2G	2d	2B	2g	1r	1r
2D	2d	2A	2f	.	.
=47	=47	=47	=47	=47	=47
1G	2.d	1B	1g	0r	0r
.	4e	.	.	.	.
1F	1f	2A	1a	.	.
.	.	[2c	.	.	.
=48	=48	=48	=48	=48	=48
1C	2e	4c]	1g	0r	0r
.	.	4d	.	.	.
.	2.c	2.e	.	.	.
2E	.	.	2g	.	.
.	4B	4d	.	.	.
2F	4A	[2c	[2a	.	.
.	4G	.	.	.	.
=49	=49	=49	=49	=49	=49
1D	2F	2c]	4a]	0r	0r
.	.	.	4g	.	.
.	2F	2B	1f	.	.
1C	1G	[1c	.	.	.
.	.	.	2e	.	.
=50	=50	=50	=50	=50	=50
0F	0A	0c]	0f	1r	1r
.	.	.	.	1a	1cc
=51	=51	=51	=51	=51	=51
0r	0r	0r	0r	2g	2b
.	.	.	.	2f	2a
.	.	.	.	1g	1b
=52	=52	=52	=52	=52	=52
2r	2r	2r	2r	1f	1a
1F	2.f	1a	1cc	.	.
.	.	.	.	1r	1r
.	4e	.	.	.	.
2G	2d	4g	2b	.	.
.	.	4f	.	.	.
=53	=53	=53	=53	=53	=53
2A	2c	2e	2a	0r	0r
2B	2.d	2d	2g	.	.
1A	.	1e	1a	.	.
.	8c#iL	.	.	.	.
.	8BJ	.	.	.	.
.	2c#i	.	.	.	.
=54	=54	=54	=54	=54	=54
0D	0d	1f#X	0a	2r	1r
.	.	.	.	2d	.
.	.	1r	.	2f	2r
.	.	.	.	2f	2a
=55	=55	=55	=55	=55	=55
0r	0r	0r	0r	2e	2cc
.	.	.	.	2c	2cc
.	.	.	.	[1g	2b
.	.	.	.	.	2g
=56	=56	=56	=56	=56	=56
0r	0r	0r	0r	2g]	1.dd
.	.	.	.	2f	.
.	.	.	.	2g	.
.	.	.	.	2a	2cc
=57	=57	=57	=57	=57	=57
0r	0r	1r	0r	2g	2b
.	.	.	.	2.a	2a
.	.	1e	.	.	1b
.	.	.	.	8g#iL	.
.	.	.	.	8f#iJ	.
.	.	.	.	2g#i	.
=58	=58	=58	=58	=58	=58
1A	0r	1.f	1r	1a	1a
[1B-X	.	.	1d	1r	1r
.	.	2e	.	.	.
=59	=59	=59	=59	=59	=59
2B-]	0r	2d	1f	0r	0r
2A	.	2c	.	.	.
2G	.	2B	2e	.	.
2F	.	2A	[2d	.	.
=60	=60	=60	=60	=60	=60
2G	1e	2B	2d]	0r	0r
2A	.	2c	2c	.	.
2.D	[1f	2A	4d	.	.
.	.	.	4e	.	.
.	.	[2d	4f	.	.
4E	.	.	4g	.	.
=61	=61	=61	=61	=61	=61
4F	2f]	2d]	2a	1r	0r
4G	.	.	.	.	.
2A	2e	2c	2a	.	.
2D	2d	2d	2.f	1a	.
[2F	2c	[2A	.	.	.
.	.	.	4g	.	.
=62	=62	=62	=62	=62	=62
2F]	2d	2A]	1.a	0r	0r
4E	2f	1d	.	.	.
4D	.	.	.	.	.
1A	2e	.	.	.	.
.	[2f	2c#i	2a	.	.
=63	=63	=63	=63	=63	=63
1D	4f]	1d	1a	1f	0r
.	4e	.	.	.	.
.	1d	.	.	.	.
[1A	.	[1e	[1a	1r	.
.	4c#i	.	.	.	.
.	4B	.	.	.	.
=64	=64	=64	=64	=64	=64
1A]	1c#i	1e]	1a]	1r	1ee
2r	1d	2r	2r	1a	[1ff
2D	.	2d	2f	.	.
=65	=65	=65	=65	=65	=65
2D	1A	2d	2d	1.a	2ff]
2A	.	2c	2e	.	2ee
2D	[1A	2d	2f	.	2dd
2A	.	2e	2e	2a	2cc
=66	=66	=66	=66	=66	=66
2D	0A_	2f	2d	2a	2dd
2D	.	2d	2A	2a	2ff
2A	.	2e	2c	2a	2ee
2D	.	[2d	2d	2a	[2ff
=67	=67	=67	=67	=67	=67
2.F	0A_	4d]	2A	2a	4ff]
.	.	4e	.	.	4ee
.	.	2f	2.a	2a	1dd
4G	.	.	.	.	.
1A	.	1e	.	1a	.
.	.	.	4g	.	.
.	.	.	4f	.	2cc#i
.	.	.	4e	.	.
=68	=68	=68	=68	=68	=68
1D	1A]	1d	1f	1a	2dd
.	.	.	.	.	2dd
2r	2r	2r	2r	2r	[1ff
2D	2A	2d	2f	2a	.
=69	=69	=69	=69	=69	=69
2D	2A	2d	2d	1.a	2ff]
2A	2A	2c	2e	.	2ee
2D	2A	2d	2f	.	2dd
2A	2A	2e	2e	2a	2cc
=70	=70	=70	=70	=70	=70
2D	2.A	2f	2d	2a	2dd
2D	.	2d	2A	2a	2ff
.	4A	.	.	.	.
2A	2A	2e	2c	2a	2ee
2D	2A	[2d	2d	2a	[2ff
=71	=71	=71	=71	=71	=71
2.F	0A	4d]	2A	2a	4ff]
.	.	4e	.	.	4ee
.	.	2f	2.a	2a	1dd
4G	.	.	.	.	.
1A	.	1e	.	1a	.
.	.	.	4g	.	.
.	.	.	4f	.	2cc#i
.	.	.	4e	.	.
=72	=72	=72	=72	=72	=72
00Dl	00Al	00dl	00fl	00al	00ddl
==	==	==	==	==	==
*-	*-	*-	*-	*-	*-
!!!system-decoration: [*]
!!!RDF**kern: i = editorial accidental
!!!RDF**kern: l = terminal long
!!!ENC: Benjamin Ory
!!!END: 2021/2/1
!!!EED: Benjamin Ory
!!!EEV: 2021/04/29
!!!YEC: Copyright 2021 Benjamin Ory, All Rights Reserved
!!!ONB: Translated from MusicXML on 2021/04/29
